src/images/svg/binary-to-deriv/support-icon.svg

<svg width="48" height="48" fill="none" xmlns="http://www.w3.org/2000/svg"><rect width="48" height="48" rx="8" fill="#FFB22A"/><path d="M24 14c-5.52 0-10 4.48-10 10s4.48 10 10 10 10-4.48 10-10-4.48-10-10-10zm7.46 7.12-2.78 1.15a4.982 4.982 0 0 0-2.95-2.94l1.15-2.78c2.1.8 3.77 2.47 4.58 4.57zM24 27c-1.66 0-3-1.34-3-3s1.34-3 3-3 3 1.34 3 3-1.34 3-3 3zm-2.87-10.46 1.17 2.78a5 5 0 0 0-2.98 2.97l-2.78-1.16a7.984 7.984 0 0 1 4.59-4.59zm-4.59 10.33 2.78-1.15a4.968 4.968 0 0 0 2.97 2.96l-1.17 2.78a7.996 7.996 0 0 1-4.58-4.59zm10.34 4.59-1.15-2.78a4.978 4.978 0 0 0 2.95-2.97l2.78 1.17a8.007 8.007 0 0 1-4.58 4.58z" fill="#fff"/></svg>

<svg width="48" height="48" viewBox="0 0 48 48" fill="none" xmlns="http://www.w3.org/2000/svg">
<rect width="48" height="48" rx="8" fill="#FFB22A"/>
<path d="M24 14C18.48 14 14 18.48 14 24C14 29.52 18.48 34 24 34C29.52 34 34 29.52 34 24C34 18.48 29.52 14 24 14ZM31.46 21.12L28.68 22.27C28.17 20.91 27.1 19.83 25.73 19.33L26.88 16.55C28.98 17.35 30.65 19.02 31.46 21.12ZM24 27C22.34 27 21 25.66 21 24C21 22.34 22.34 21 24 21C25.66 21 27 22.34 27 24C27 25.66 25.66 27 24 27ZM21.13 16.54L22.3 19.32C20.92 19.82 19.83 20.91 19.32 22.29L16.54 21.13C17.35 19.02 19.02 17.35 21.13 16.54ZM16.54 26.87L19.32 25.72C19.83 27.1 20.91 28.18 22.29 28.68L21.12 31.46C19.02 30.65 17.35 28.98 16.54 26.87ZM26.88 31.46L25.73 28.68C27.1 28.17 28.18 27.09 28.68 25.71L31.46 26.88C30.65 28.98 28.98 30.65 26.88 31.46Z" fill="white"/>
</svg>
